; generated by Slic3r 0.9.7 on 2013-01-11 at 21:02:25

; layer_height = 0.4
; perimeters = 3
; top_solid_layers = 3
; bottom_solid_layers = 3
; fill_density = 0.4
; perimeter_speed = 30
; infill_speed = 60
; travel_speed = 130
; scale = 1
; nozzle_diameter = 0.5
; filament_diameter = 3
; extrusion_multiplier = 1
; perimeters extrusion width = 0.53mm
; infill extrusion width = 0.53mm
; first layer extrusion width = 0.80mm

M104 S200 ; set temperature
G28 ; home all axes
M109 S200 ; wait for temperature to be reached
G90 ; use absolute coordinates
G21 ; set units to millimeters
G92 E0
M82 ; use absolute distances for extrusion
G1 F1800.000 E-1.00000
G92 E0
G1 Z0.400 F7800.000
G1 X75.720 Y77.473
G1 F1800.000 E1.00000
G1 X79.940 Y73.243 F540.000 E1.24873
G1 X80.350 Y72.863 E1.27200
G1 X80.790 Y72.523 E1.29514
G1 X81.020 Y72.363 E1.30681
G1 X81.750 Y71.953 E1.34166
G1 X82.000 Y71.833 E1.35320
G1 X82.520 Y71.633 E1.37640
G1 X83.050 Y71.473 E1.39944
G1 X83.330 Y71.413 E1.41136
G1 X84.150 Y71.293 E1.44586
G1 X84.710 Y71.263 E1.46921
G1 X115.560 Y71.273 E2.75342
G1 X116.390 Y71.363 E2.78817
G1 X116.940 Y71.473 E2.81152
G1 X117.470 Y71.633 E2.83456
G1 X117.990 Y71.833 E2.85776
G1 X118.490 Y72.083 E2.88103
G1 X118.970 Y72.363 E2.90416
G1 X119.640 Y72.863 E2.93896
G1 X120.050 Y73.243 E2.96223
G1 X124.470 Y77.683 E3.22303
G1 X124.850 Y78.133 E3.24754
G1 X125.330 Y78.863 E3.28391
G1 X125.720 Y79.653 E3.32059
G1 X130.930 Y92.213 E3.88663
G1 X131.110 Y92.773 E3.91111
G1 X131.180 Y93.063 E3.92353
G1 X131.280 Y93.643 E3.94803
G1 X131.340 Y94.523 E3.98475
G1 X131.340 Y100.503 E4.23368
G1 X131.280 Y101.383 E4.27040
G1 X131.180 Y101.963 E4.29490
G1 X131.110 Y102.253 E4.30732
G1 X130.930 Y102.813 E4.33180
G1 X130.820 Y103.083 E4.34394
G1 X125.720 Y115.373 E4.89784
G1 X125.470 Y115.903 E4.92224
G1 X125.180 Y116.413 E4.94666
G1 X124.850 Y116.893 E4.97091
G1 X124.470 Y117.343 E4.99543
G1 X119.840 Y121.983 E5.26829
G1 X119.150 Y122.543 E5.30528
G1 X118.650 Y122.853 E5.32977
G1 X118.130 Y123.133 E5.35436
G1 X105.560 Y128.333 E5.92062
G1 X105.280 Y128.443 E5.93314
G1 X104.720 Y128.623 E5.95763
G1 X104.440 Y128.693 E5.96964
G1 X103.860 Y128.793 E5.99414
G1 X102.980 Y128.853 E6.03086
G1 X97.010 Y128.853 E6.27938
G1 X96.130 Y128.793 E6.31609
G1 X95.550 Y128.693 E6.34060
G1 X95.270 Y128.623 E6.35261
G1 X94.710 Y128.443 E6.37710
G1 X94.430 Y128.333 E6.38962
G1 X81.860 Y123.133 E6.95588
G1 X81.340 Y122.853 E6.98047
G1 X80.840 Y122.543 E7.00496
G1 X80.380 Y122.183 E7.02927
G1 X79.940 Y121.783 E7.05403
G1 X75.520 Y117.343 E7.31482
G1 X75.140 Y116.893 E7.33934
G1 X74.970 Y116.653 E7.35158
G1 X74.510 Y115.903 E7.38821
G1 X74.380 Y115.643 E7.40031
G1 X69.180 Y103.083 E7.96619
G1 X69.070 Y102.803 E7.97871
G1 X68.890 Y102.243 E8.00320
G1 X68.820 Y101.963 E8.01521
G1 X68.720 Y101.383 E8.03971
G1 X68.660 Y100.503 E8.07643
G1 X68.660 Y94.523 E8.32536
G1 X68.720 Y93.643 E8.36208
G1 X68.820 Y93.063 E8.38658
G1 X68.890 Y92.783 E8.39859
G1 X69.070 Y92.223 E8.42308
G1 X69.180 Y91.943 E8.43560
G1 X74.380 Y79.383 E9.00148
G1 X74.660 Y78.863 E9.02607
G1 X74.970 Y78.373 E9.05021
G1 X75.140 Y78.133 E9.06245
G1 X75.644 Y77.553 E9.09443
G1 X75.720 Y77.473 E9.09903
G1 F1800.000 E8.09903
G92 E0
G1 X82.435 Y112.661 F7800.000
G1 F1800.000 E1.00000
G1 X86.057 Y107.815 F540.000 E1.25182
G1 X84.362 Y105.485 E1.37178
G1 X82.599 Y100.056 E1.60936
G1 X76.871 Y99.229 E1.85027
G1 X76.871 Y95.805 E1.99284
G1 X82.599 Y94.978 E2.23375
G1 X84.362 Y89.549 E2.47133
G1 X86.057 Y87.219 E2.59129
G1 X82.435 Y82.373 E2.84311
G1 X84.856 Y79.952 E2.98567
G1 X89.702 Y83.574 E3.23748
G1 X90.995 Y82.633 E3.30404
G1 X94.700 Y90.577 E3.66891
G1 X93.750 Y91.267 E3.71778
G1 X92.124 Y93.504 E3.83288
G1 X91.270 Y96.135 E3.94805
G1 X91.270 Y98.899 E4.06311
G1 X92.124 Y101.530 E4.17827
G1 X93.750 Y103.767 E4.29338
G1 X95.987 Y105.393 E4.40848
G1 X98.618 Y106.247 E4.52365
G1 X101.382 Y106.247 E4.63871
G1 X104.013 Y105.393 E4.75387
G1 X106.250 Y103.767 E4.86898
G1 X107.876 Y101.530 E4.98408
G1 X108.730 Y98.899 E5.09925
G1 X108.730 Y96.135 E5.21431
G1 X107.876 Y93.504 E5.32948
G1 X106.250 Y91.267 E5.44458
G1 X105.300 Y90.577 E5.49345
G1 X109.005 Y82.633 E5.85832
G1 X110.298 Y83.574 E5.92488
G1 X115.144 Y79.952 E6.17669
G1 X117.565 Y82.373 E6.31925
G1 X113.943 Y87.219 E6.57107
G1 X115.638 Y89.549 E6.69103
G1 X117.401 Y94.978 E6.92861
G1 X123.129 Y95.805 E7.16952
G1 X123.129 Y99.229 E7.31209
G1 X117.401 Y100.056 E7.55300
G1 X115.638 Y105.485 E7.79058
G1 X113.943 Y107.815 E7.91054
G1 X117.565 Y112.661 E8.16236
G1 X115.144 Y115.082 E8.30491
G1 X110.298 Y111.460 E8.55673
G1 X107.968 Y113.155 E8.67669
G1 X102.539 Y114.918 E8.91428
G1 X101.712 Y120.646 E9.15518
G1 X98.288 Y120.646 E9.29776
G1 X97.461 Y114.918 E9.53866
G1 X92.032 Y113.155 E9.77624
G1 X89.702 Y111.460 E9.89621
G1 X84.856 Y115.082 E10.14802
G1 X82.513 Y112.739 E10.28599
G1 X82.435 Y112.661 E10.29058
G1 X81.464 Y112.730 F7800.000
G1 X85.143 Y107.809 F540.000 E10.54634
G1 X83.698 Y105.823 E10.64858
G1 X82.041 Y100.719 E10.87196
G1 X76.136 Y99.867 E11.12033
G1 X76.136 Y95.167 E11.31594
G1 X82.041 Y94.315 E11.56430
G1 X83.698 Y89.211 E11.78769
G1 X85.143 Y87.225 E11.88993
G1 X81.464 Y82.304 E12.14569
G1 X84.787 Y78.981 E12.34128
G1 X89.708 Y82.660 E12.59703
G1 X91.284 Y81.514 E12.67818
G1 X95.623 Y90.815 E13.10543
G1 X94.277 Y91.794 E13.17470
G1 X92.788 Y93.842 E13.28011
G1 X92.005 Y96.251 E13.38556
G1 X92.005 Y98.783 E13.49094
G1 X92.788 Y101.192 E13.59639
G1 X94.277 Y103.240 E13.70180
G1 X96.325 Y104.729 E13.80721
G1 X98.734 Y105.512 E13.91266
G1 X101.266 Y105.512 E14.01804
G1 X103.675 Y104.729 E14.12349
G1 X105.723 Y103.240 E14.22890
G1 X107.212 Y101.192 E14.33431
G1 X107.995 Y98.783 E14.43976
G1 X107.995 Y96.251 E14.54514
G1 X107.212 Y93.842 E14.65059
G1 X105.723 Y91.794 E14.75600
G1 X104.377 Y90.815 E14.82527
G1 X108.716 Y81.514 E15.25252
G1 X110.292 Y82.660 E15.33366
G1 X115.213 Y78.981 E15.58942
G1 X118.536 Y82.304 E15.78501
G1 X114.857 Y87.225 E16.04077
G1 X116.302 Y89.211 E16.14301
G1 X117.959 Y94.315 E16.36639
G1 X123.864 Y95.167 E16.61476
G1 X123.864 Y99.867 E16.81037
G1 X117.959 Y100.719 E17.05873
G1 X116.302 Y105.823 E17.28212
G1 X114.857 Y107.809 E17.38436
G1 X118.536 Y112.730 E17.64012
G1 X115.213 Y116.053 E17.83571
G1 X110.292 Y112.374 E18.09146
G1 X108.306 Y113.819 E18.19370
G1 X103.202 Y115.476 E18.41709
G1 X102.350 Y121.381 E18.66545
G1 X97.650 Y121.381 E18.86107
G1 X96.798 Y115.476 E19.10943
G1 X91.694 Y113.819 E19.33282
G1 X89.708 Y112.374 E19.43506
G1 X84.787 Y116.053 E19.69081
G1 X81.542 Y112.808 E19.88181
G1 X81.464 Y112.730 E19.88640
G1 X80.494 Y112.800 F7800.000
G1 X84.229 Y107.803 F540.000 E20.14610
G1 X83.035 Y106.161 E20.23062
G1 X81.483 Y101.382 E20.43981
G1 X75.400 Y100.504 E20.69563
G1 X75.400 Y94.530 E20.94428
G1 X81.483 Y93.652 E21.20011
G1 X83.035 Y88.873 E21.40929
G1 X84.229 Y87.231 E21.49382
G1 X80.494 Y82.234 E21.75351
G1 X84.717 Y78.011 E22.00213
G1 X89.714 Y81.746 E22.26183
G1 X91.574 Y80.394 E22.35755
G1 X96.546 Y91.054 E22.84720
G1 X94.804 Y92.321 E22.93686
G1 X93.451 Y94.180 E23.03258
G1 X92.741 Y96.368 E23.12832
G1 X92.741 Y98.666 E23.22401
G1 X93.451 Y100.854 E23.31975
G1 X94.804 Y102.713 E23.41546
G1 X96.663 Y104.066 E23.51118
G1 X98.851 Y104.776 E23.60692
G1 X101.149 Y104.776 E23.70260
G1 X103.337 Y104.066 E23.79835
G1 X105.196 Y102.713 E23.89406
G1 X106.549 Y100.854 E23.98977
G1 X107.259 Y98.666 E24.08552
G1 X107.259 Y96.368 E24.18120
G1 X106.549 Y94.180 E24.27695
G1 X105.196 Y92.321 E24.37266
G1 X103.454 Y91.054 E24.46233
G1 X108.426 Y80.394 E24.95197
G1 X110.286 Y81.746 E25.04770
G1 X115.283 Y78.011 E25.30739
G1 X119.506 Y82.234 E25.55601
G1 X115.771 Y87.231 E25.81571
G1 X116.965 Y88.873 E25.90023
G1 X118.517 Y93.652 E26.10942
G1 X124.600 Y94.530 E26.36524
G1 X124.600 Y100.504 E26.61389
G1 X118.517 Y101.382 E26.86972
G1 X116.965 Y106.161 E27.07890
G1 X115.771 Y107.803 E27.16343
G1 X119.506 Y112.800 E27.42312
G1 X115.283 Y117.023 E27.67174
G1 X110.286 Y113.288 E27.93144
G1 X108.644 Y114.482 E28.01596
G1 X103.865 Y116.034 E28.22514
G1 X102.987 Y122.117 E28.48097
G1 X97.013 Y122.117 E28.72962
G1 X96.135 Y116.034 E28.98545
G1 X91.356 Y114.482 E29.19463
G1 X89.714 Y113.288 E29.27915
G1 X84.717 Y117.023 E29.53885
G1 X80.572 Y112.878 E29.78288
G1 X80.494 Y112.800 E29.78747
G1 X80.301 Y112.079 F7800.000
G1 F1800.000 E28.78747
G92 E0
G1 X85.160 Y114.346 F7800.000
G1 F1800.000 E1.00000
G1 X83.171 Y112.357 F1080.000 E1.11882
G1 X83.623 Y111.753 E1.15067
G1 X85.764 Y113.894 E1.27860
G1 X86.368 Y113.443 E1.31045
G1 X84.074 Y111.149 E1.44749
G1 X84.526 Y110.544 E1.47935
G1 X86.973 Y112.991 E1.62550
G1 X87.577 Y112.539 E1.65735
G1 X84.978 Y109.940 E1.81260
G1 X85.429 Y109.336 E1.84446
G1 X88.181 Y112.088 E2.00883
G1 X88.785 Y111.636 E2.04069
G1 X85.881 Y108.732 E2.21416
G1 X86.332 Y108.128 E2.24602
G1 X89.389 Y111.185 E2.42861
G1 X90.334 Y111.075 F7800.000
G1 X86.442 Y107.183 F1080.000 E2.66109
G1 X84.582 Y104.267 E2.80721
G1 X93.250 Y112.935 E3.32505
G1 X94.814 Y113.443 E3.39448
G1 X84.074 Y102.703 E4.03604
G1 X83.566 Y101.140 E4.10547
G1 X96.377 Y113.951 E4.87074
G1 X97.937 Y114.455 E4.93996
G1 X101.602 Y118.120 E5.15890
G1 X101.469 Y119.042 E5.19827
G1 X98.115 Y115.688 E5.39862
G1 X97.941 Y114.459 E5.45108
G1 X83.058 Y99.576 E6.34008
G1 X83.062 Y99.580 F7800.000
G1 X79.397 Y95.915 F1080.000 E6.55902
G1 X78.475 Y96.048 E6.59839
G1 X81.829 Y99.402 E6.79874
G1 X80.595 Y99.224 E6.85139
G1 X77.552 Y96.181 E7.03315
G1 X77.373 Y97.058 E7.07093
G1 X79.361 Y99.046 E7.18972
G1 X78.128 Y98.868 E7.24237
G1 X77.373 Y98.113 E7.28746
G1 F1800.000 E6.28746
G92 E0
G1 X80.320 Y95.782 F7800.000
G1 F1800.000 E1.00000
G1 X101.735 Y117.197 F1080.000 E2.27926
G1 X101.868 Y116.275 E2.31863
G1 X81.242 Y95.649 E3.55074
G1 X82.164 Y95.516 E3.59010
G1 X102.001 Y115.353 E4.77507
G1 X102.252 Y114.548 F7800.000
G1 X82.969 Y95.265 F1080.000 E5.92697
G1 X83.228 Y94.468 E5.96235
G1 X103.049 Y114.289 E7.14640
G1 X103.846 Y114.030 E7.18178
G1 X95.746 Y105.930 E7.66566
G1 X97.309 Y106.437 E7.73507
G1 X104.643 Y113.772 E8.17318
G1 X105.440 Y113.513 E8.20857
G1 X98.676 Y106.749 E8.61262
G1 X99.731 Y106.749 E8.65721
G1 X106.236 Y113.254 E9.04580
G1 X107.033 Y112.995 E9.08119
G1 X100.787 Y106.749 E9.45433
G1 X101.701 Y106.607 E9.49340
G1 X107.830 Y112.736 E9.85954
G1 X108.449 Y112.300 E9.89154
G1 X102.498 Y106.348 E10.24705
G1 X103.295 Y106.090 E10.28244
G1 X109.060 Y111.855 E10.62685
G1 X109.672 Y111.411 E10.65877
G1 X104.092 Y105.831 E10.99209
G1 X104.709 Y105.392 E11.02407
G1 X110.283 Y110.966 E11.35704
G1 X112.970 Y112.598 E11.48981
G1 X105.320 Y104.948 E11.94678
G1 X105.931 Y104.503 E11.97870
G1 X115.541 Y114.113 E12.55273
G1 X116.068 Y113.585 E12.58426
G1 X106.542 Y104.059 E13.15332
G1 X106.986 Y103.448 E13.18524
G1 X116.596 Y113.057 E13.75927
G1 X115.081 Y110.487 E13.88532
G1 X107.431 Y102.837 E14.34229
G1 X107.875 Y102.226 E14.37421
G1 X113.450 Y107.800 E14.70717
G1 X113.894 Y107.188 E14.73909
G1 X108.314 Y101.608 E15.07242
G1 X108.573 Y100.812 E15.10781
G1 X114.338 Y106.577 E15.45222
G1 X114.783 Y105.966 E15.48415
G1 X108.831 Y100.015 E15.83966
G1 X109.090 Y99.218 E15.87505
G1 X115.219 Y105.347 E16.24119
G1 X115.478 Y104.550 E16.27657
G1 X109.232 Y98.304 E16.64971
G1 X109.232 Y97.248 E16.69430
G1 X115.737 Y103.753 E17.08290
G1 X115.996 Y102.957 E17.11829
G1 X109.232 Y96.193 E17.52234
G1 X108.920 Y94.826 E17.58155
G1 X116.255 Y102.160 E18.01966
G1 X116.513 Y101.363 E18.05505
G1 X108.413 Y93.263 E18.53892
G1 F1800.000 E17.53892
G92 E0
G1 X106.091 Y89.885 F7800.000
G1 F1800.000 E1.00000
G1 X116.772 Y100.566 F1080.000 E1.63804
G1 X117.031 Y99.769 E1.67343
G1 X106.427 Y89.165 E2.30687
G1 X106.763 Y88.445 E2.34042
G1 X117.836 Y99.518 E3.00187
G1 X118.758 Y99.385 E3.04123
G1 X107.098 Y87.726 E3.73773
G1 X107.434 Y87.006 E3.77128
G1 X119.680 Y99.252 E4.50282
G1 X120.603 Y99.119 E4.54218
G1 X116.938 Y95.454 E4.76113
G1 X116.942 Y95.458 F7800.000
G1 X107.770 Y86.286 F1080.000 E5.30901
G1 X108.106 Y85.566 E5.34256
G1 X116.434 Y93.894 E5.84005
G1 X115.926 Y92.331 E5.90948
G1 X108.441 Y84.846 E6.35658
G1 X108.777 Y84.126 E6.39013
G1 X115.418 Y90.767 E6.78684
G1 X113.558 Y87.851 E6.93296
G1 X109.666 Y83.960 E7.16542
G1 X110.611 Y83.849 F7800.000
G1 X113.668 Y86.906 F1080.000 E7.34801
G1 X114.119 Y86.302 E7.37987
G1 X111.215 Y83.398 E7.55334
G1 X111.819 Y82.946 E7.58520
G1 X114.571 Y85.698 E7.74957
G1 X115.022 Y85.094 E7.78142
G1 X112.423 Y82.495 E7.93668
G1 X113.027 Y82.043 E7.96853
G1 X115.474 Y84.490 E8.11468
G1 X115.926 Y83.885 E8.14654
G1 X113.632 Y81.591 E8.28357
G1 X114.236 Y81.140 E8.31543
G1 X116.377 Y83.281 E8.44335
G1 X116.829 Y82.677 E8.47521
G1 X114.840 Y80.688 E8.59402
G1 F1800.000 E7.59402
G92 E0
G1 X118.171 Y95.632 F7800.000
G1 F1800.000 E1.00000
G1 X121.525 Y98.986 F1080.000 E1.20035
G1 X122.448 Y98.853 E1.23972
G1 X119.405 Y95.810 E1.42148
G1 X120.639 Y95.988 E1.47413
G1 X122.627 Y97.976 E1.59291
G1 X122.627 Y96.921 E1.63750
G1 X121.873 Y96.166 E1.68259
G1 F1800.000 E0.68259
G92 E0
G1 X93.924 Y90.385 F7800.000
G1 F1800.000 E1.00000
G1 X84.460 Y80.921 F1080.000 E1.56535
G1 X83.932 Y81.449 E1.59687
G1 X93.458 Y90.975 E2.16593
G1 X93.014 Y91.586 E2.19785
G1 X83.404 Y81.976 E2.77189
G1 X84.919 Y84.547 E2.89794
G1 X92.569 Y92.197 E3.35490
G1 X92.125 Y92.808 E3.38682
G1 X86.550 Y87.234 E3.71979
G1 X86.106 Y87.845 E3.75171
G1 X91.686 Y93.425 E4.08503
G1 X91.427 Y94.222 E4.12042
G1 X85.662 Y88.457 E4.46484
G1 X85.217 Y89.068 E4.49676
G1 X91.169 Y95.019 E4.85227
G1 X90.910 Y95.816 E4.88766
G1 X84.781 Y89.687 E5.25380
G1 X84.522 Y90.484 E5.28919
G1 X90.768 Y96.730 E5.66233
G1 X90.768 Y97.786 E5.70691
G1 X84.263 Y91.281 E6.09551
G1 X84.004 Y92.077 E6.13090
G1 X90.768 Y98.841 E6.53496
G1 X91.080 Y100.208 E6.59417
G1 X83.745 Y92.874 E7.03227
G1 X83.487 Y93.671 E7.06766
G1 X91.587 Y101.771 E7.55153
G1 F1800.000 E6.55153
G92 E0
G1 X93.001 Y88.407 F7800.000
G1 F1800.000 E1.00000
G1 X87.030 Y82.436 F1080.000 E1.35665
G1 X89.717 Y84.067 E1.48942
G1 X92.078 Y86.428 E1.63045
G1 X91.155 Y84.450 E1.72266
G1 X90.328 Y83.623 E1.77205
G1 F1800.000 E0.77205
G92 E0
G1 X98.293 Y116.922 F7800.000
G1 F1800.000 E1.00000
G1 X101.336 Y119.965 F1080.000 E1.18176
G1 X100.459 Y120.144 E1.21954
G1 X98.471 Y118.156 E1.33833
G1 X98.649 Y119.389 E1.39098
G1 X99.404 Y120.144 E1.43607
G1 F1800.000 E0.43607
G92 E0
G1 Z0.800 F7800.000
G1 X81.684 Y82.319
G1 F1800.000 E1.00000
G1 X84.802 Y79.201 F1800.000 E1.12970
G1 X89.706 Y82.866 E1.30974
G1 X91.219 Y81.766 E1.36473
G1 X95.414 Y90.761 E1.65658
G1 X94.158 Y91.675 E1.70226
G1 X92.638 Y93.765 E1.77827
G1 X91.839 Y96.225 E1.85431
G1 X91.839 Y98.809 E1.93029
G1 X92.638 Y101.269 E2.00633
G1 X94.158 Y103.359 E2.08234
G1 X96.248 Y104.879 E2.15834
G1 X98.708 Y105.678 E2.23438
G1 X101.292 Y105.678 E2.31037
G1 X103.752 Y104.879 E2.38641
G1 X105.842 Y103.359 E2.46241
G1 X107.362 Y101.269 E2.53842
G1 X108.161 Y98.809 E2.61446
G1 X108.161 Y96.225 E2.69044
G1 X107.362 Y93.765 E2.76648
G1 X105.842 Y91.675 E2.84249
G1 X104.586 Y90.761 E2.88817
G1 X108.781 Y81.766 E3.18002
G1 X110.294 Y82.866 E3.23501
G1 X115.198 Y79.201 E3.41505
G1 X118.316 Y82.319 E3.54475
G1 X114.651 Y87.223 E3.72479
G1 X116.152 Y89.288 E3.79983
G1 X117.833 Y94.465 E3.95990
G1 X123.698 Y95.311 E4.13415
G1 X123.698 Y99.723 E4.26387
G1 X117.833 Y100.569 E4.43812
G1 X116.152 Y105.746 E4.59818
G1 X114.651 Y107.811 E4.67323
G1 X118.316 Y112.715 E4.85327
G1 X115.198 Y115.833 E4.98297
G1 X110.294 Y112.168 E5.16300
G1 X108.229 Y113.669 E5.23805
G1 X103.052 Y115.350 E5.39812
G1 X102.206 Y121.215 E5.57237
G1 X97.794 Y121.215 E5.70208
G1 X96.948 Y115.350 E5.87634
G1 X91.771 Y113.669 E6.03640
G1 X89.706 Y112.168 E6.11145
G1 X84.802 Y115.833 E6.29149
G1 X81.684 Y112.715 E6.42119
G1 X85.349 Y107.811 E6.60122
G1 X83.848 Y105.746 E6.67627
G1 X82.167 Y100.569 E6.83633
G1 X76.302 Y99.723 E7.01059
G1 X76.302 Y95.311 E7.14030
G1 X82.167 Y94.465 E7.31456
G1 X83.848 Y89.288 E7.47462
G1 X85.349 Y87.223 E7.54967
G1 X81.730 Y82.382 E7.72741
G1 X81.684 Y82.319 E7.72970
G1 X81.462 Y81.806 F7800.000
G1 X84.753 Y78.515 F1800.000 E7.86658
G1 X89.711 Y82.221 E8.04858
