; generated by Slic3r 0.9.7 on 2013-01-11 at 21:26:41

; layer_height = 0.4
; perimeters = 3
; top_solid_layers = 3
; bottom_solid_layers = 3
; fill_density = 0.4
; perimeter_speed = 30
; infill_speed = 60
; travel_speed = 130
; scale = 1
; nozzle_diameter = 0.5
; filament_diameter = 3
; extrusion_multiplier = 1
; perimeters extrusion width = 0.53mm
; infill extrusion width = 0.53mm
; first layer extrusion width = 0.80mm

M104 S200 ; set temperature
G28 ; home all axes
M109 S200 ; wait for temperature to be reached
G90 ; use absolute coordinates
G21 ; set units to millimeters
G92 E0
M82 ; use absolute distances for extrusion
G1 F1800.000 E-1.00000
G92 E0
G1 Z0.400 F7800.000
G1 X75.720 Y77.473
G1 F1800.000 E1.00000
G1 X79.940 Y73.243 F540.000 E1.24873
G1 X80.350 Y72.863 E1.27200
G1 X80.790 Y72.523 E1.29514
G1 X81.020 Y72.363 E1.30681
G1 X81.750 Y71.953 E1.34166
G1 X82.000 Y71.833 E1.35320
G1 X82.520 Y71.633 E1.37640
G1 X83.050 Y71.473 E1.39944
G1 X83.330 Y71.413 E1.41136
G1 X84.150 Y71.293 E1.44586
G1 X84.710 Y71.263 E1.46921
G1 X115.560 Y71.273 E2.75342
G1 X116.390 Y71.363 E2.78817
G1 X116.940 Y71.473 E2.81152
G1 X117.470 Y71.633 E2.83456
G1 X117.990 Y71.833 E2.85776
G1 X118.490 Y72.083 E2.88103
G1 X118.970 Y72.363 E2.90416
G1 X119.640 Y72.863 E2.93896
G1 X120.050 Y73.243 E2.96223
G1 X124.470 Y77.683 E3.22303
G1 X124.850 Y78.133 E3.24754
G1 X125.330 Y78.863 E3.28391
G1 X125.720 Y79.653 E3.32059
G1 X130.930 Y92.213 E3.88663
G1 X131.110 Y92.773 E3.91111
G1 X131.180 Y93.063 E3.92353
G1 X131.280 Y93.643 E3.94803
G1 X131.340 Y94.523 E3.98475
G1 X131.340 Y100.503 E4.23368
G1 X131.280 Y101.383 E4.27040
G1 X131.180 Y101.963 E4.29490
G1 X131.110 Y102.253 E4.30732
G1 X130.930 Y102.813 E4.33180
G1 X130.820 Y103.083 E4.34394
G1 X125.720 Y115.373 E4.89784
G1 X125.470 Y115.903 E4.92224
G1 X125.180 Y116.413 E4.94666
G1 X124.850 Y116.893 E4.97091
G1 X124.470 Y117.343 E4.99543
G1 X119.840 Y121.983 E5.26829
G1 X119.150 Y122.543 E5.30528
G1 X118.650 Y122.853 E5.32977
G1 X118.130 Y123.133 E5.35436
G1 X105.560 Y128.333 E5.92062
G1 X105.280 Y128.443 E5.93314
G1 X104.720 Y128.623 E5.95763
G1 X104.440 Y128.693 E5.96964
G1 X103.860 Y128.793 E5.99414
G1 X102.980 Y128.853 E6.03086
G1 X97.010 Y128.853 E6.27938
G1 X96.130 Y128.793 E6.31609
G1 X95.550 Y128.693 E6.34060
G1 X95.270 Y128.623 E6.35261
G1 X94.710 Y128.443 E6.37710
G1 X94.430 Y128.333 E6.38962
G1 X81.860 Y123.133 E6.95588
G1 X81.340 Y122.853 E6.98047
G1 X80.840 Y122.543 E7.00496
G1 X80.380 Y122.183 E7.02927
G1 X79.940 Y121.783 E7.05403
G1 X75.520 Y117.343 E7.31482
G1 X75.140 Y116.893 E7.33934
G1 X74.970 Y116.653 E7.35158
G1 X74.510 Y115.903 E7.38821
G1 X74.380 Y115.643 E7.40031
G1 X69.180 Y103.083 E7.96619
G1 X69.070 Y102.803 E7.97871
G1 X68.890 Y102.243 E8.00320
G1 X68.820 Y101.963 E8.01521
G1 X68.720 Y101.383 E8.03971
G1 X68.660 Y100.503 E8.07643
G1 X68.660 Y94.523 E8.32536
G1 X68.720 Y93.643 E8.36208
G1 X68.820 Y93.063 E8.38658
G1 X68.890 Y92.783 E8.39859
G1 X69.070 Y92.223 E8.42308
G1 X69.180 Y91.943 E8.43560
G1 X74.380 Y79.383 E9.00148
G1 X74.660 Y78.863 E9.02607
G1 X74.970 Y78.373 E9.05021
G1 X75.140 Y78.133 E9.06245
G1 X75.644 Y77.553 E9.09443
G1 X75.720 Y77.473 E9.09903
G1 F1800.000 E8.09903
G92 E0
G1 X98.288 Y120.646 F7800.000
G1 F1800.000 E1.00000
G1 X97.461 Y114.918 F540.000 E1.24090
G1 X92.032 Y113.155 E1.47849
G1 X89.702 Y111.460 E1.59845
G1 X84.856 Y115.082 E1.85027
G1 X82.435 Y112.661 E1.99282
G1 X86.057 Y107.815 E2.24464
G1 X84.362 Y105.485 E2.36460
G1 X82.599 Y100.056 E2.60219
G1 X76.871 Y99.229 E2.84309
G1 X76.871 Y95.805 E2.98566
G1 X82.599 Y94.978 E3.22657
G1 X84.362 Y89.549 E3.46415
G1 X86.057 Y87.219 E3.58411
G1 X82.435 Y82.373 E3.83593
G1 X84.856 Y79.952 E3.97849
G1 X89.702 Y83.574 E4.23031
G1 X90.995 Y82.633 E4.29687
G1 X94.700 Y90.577 E4.66173
G1 X93.750 Y91.267 E4.71060
G1 X92.124 Y93.504 E4.82571
G1 X91.270 Y96.135 E4.94087
G1 X91.270 Y98.899 E5.05594
G1 X92.124 Y101.530 E5.17110
G1 X93.750 Y103.767 E5.28620
G1 X95.987 Y105.393 E5.40131
G1 X98.618 Y106.247 E5.51647
G1 X101.382 Y106.247 E5.63154
G1 X104.013 Y105.393 E5.74670
G1 X106.250 Y103.767 E5.86180
G1 X107.876 Y101.530 E5.97691
G1 X108.730 Y98.899 E6.09207
G1 X108.730 Y96.135 E6.20714
G1 X107.876 Y93.504 E6.32230
G1 X106.250 Y91.267 E6.43740
G1 X105.300 Y90.577 E6.48627
G1 X109.005 Y82.633 E6.85114
G1 X110.298 Y83.574 E6.91770
G1 X115.144 Y79.952 E7.16952
G1 X117.565 Y82.373 E7.31207
G1 X113.943 Y87.219 E7.56389
G1 X115.638 Y89.549 E7.68385
G1 X117.401 Y94.978 E7.92144
G1 X123.129 Y95.805 E8.16234
G1 X123.129 Y99.229 E8.30491
G1 X117.401 Y100.056 E8.54582
G1 X115.638 Y105.485 E8.78340
G1 X113.943 Y107.815 E8.90336
G1 X117.565 Y112.661 E9.15518
G1 X115.144 Y115.082 E9.29774
G1 X110.298 Y111.460 E9.54956
G1 X107.968 Y113.155 E9.66952
G1 X102.539 Y114.918 E9.90710
G1 X101.712 Y120.646 E10.14801
G1 X98.398 Y120.646 E10.28599
G1 X98.288 Y120.646 E10.29058
G1 X97.650 Y121.381 F7800.000
G1 X96.798 Y115.476 F540.000 E10.53894
G1 X91.694 Y113.819 E10.76233
G1 X89.708 Y112.374 E10.86457
G1 X84.787 Y116.053 E11.12033
G1 X81.464 Y112.730 E11.31592
G1 X85.143 Y107.809 E11.57167
G1 X83.698 Y105.823 E11.67391
G1 X82.041 Y100.719 E11.89730
G1 X76.136 Y99.867 E12.14566
G1 X76.136 Y95.167 E12.34128
G1 X82.041 Y94.315 E12.58964
G1 X83.698 Y89.211 E12.81303
G1 X85.143 Y87.225 E12.91527
G1 X81.464 Y82.304 E13.17102
G1 X84.787 Y78.981 E13.36661
G1 X89.708 Y82.660 E13.62237
G1 X91.284 Y81.514 E13.70351
G1 X95.623 Y90.815 E14.13077
G1 X94.277 Y91.794 E14.20004
G1 X92.788 Y93.842 E14.30544
G1 X92.005 Y96.251 E14.41090
G1 X92.005 Y98.783 E14.51627
G1 X92.788 Y101.192 E14.62173
G1 X94.277 Y103.240 E14.72713
G1 X96.325 Y104.729 E14.83254
G1 X98.734 Y105.512 E14.93800
G1 X101.266 Y105.512 E15.04337
G1 X103.675 Y104.729 E15.14883
G1 X105.723 Y103.240 E15.25423
G1 X107.212 Y101.192 E15.35964
G1 X107.995 Y98.783 E15.46510
G1 X107.995 Y96.251 E15.57047
G1 X107.212 Y93.842 E15.67593
G1 X105.723 Y91.794 E15.78133
G1 X104.377 Y90.815 E15.85060
G1 X108.716 Y81.514 E16.27786
G1 X110.292 Y82.660 E16.35900
G1 X115.213 Y78.981 E16.61476
G1 X118.536 Y82.304 E16.81035
G1 X114.857 Y87.225 E17.06610
G1 X116.302 Y89.211 E17.16834
G1 X117.959 Y94.315 E17.39173
G1 X123.864 Y95.167 E17.64009
G1 X123.864 Y99.867 E17.83571
G1 X117.959 Y100.719 E18.08407
G1 X116.302 Y105.823 E18.30746
G1 X114.857 Y107.809 E18.40970
G1 X118.536 Y112.730 E18.66545
G1 X115.213 Y116.053 E18.86104
G1 X110.292 Y112.374 E19.11680
G1 X108.306 Y113.819 E19.21904
G1 X103.202 Y115.476 E19.44243
G1 X102.350 Y121.381 E19.69079
G1 X97.761 Y121.381 E19.88181
G1 X97.650 Y121.381 E19.88640
G1 X97.013 Y122.117 F7800.000
G1 X96.135 Y116.034 F540.000 E20.14223
G1 X91.356 Y114.482 E20.35141
G1 X89.714 Y113.288 E20.43594
G1 X84.717 Y117.023 E20.69563
G1 X80.494 Y112.800 E20.94425
G1 X84.229 Y107.803 E21.20395
G1 X83.035 Y106.161 E21.28847
G1 X81.483 Y101.382 E21.49766
G1 X75.400 Y100.504 E21.75348
G1 X75.400 Y94.530 E22.00213
G1 X81.483 Y93.652 E22.25796
G1 X83.035 Y88.873 E22.46714
G1 X84.229 Y87.231 E22.55167
G1 X80.494 Y82.234 E22.81136
G1 X84.717 Y78.011 E23.05998
G1 X89.714 Y81.746 E23.31968
G1 X91.574 Y80.394 E23.41540
G1 X96.546 Y91.054 E23.90504
G1 X94.804 Y92.321 E23.99471
G1 X93.451 Y94.180 E24.09043
G1 X92.741 Y96.368 E24.18617
G1 X92.741 Y98.666 E24.28185
G1 X93.451 Y100.854 E24.37760
G1 X94.804 Y102.713 E24.47331
G1 X96.663 Y104.066 E24.56902
G1 X98.851 Y104.776 E24.66477
G1 X101.149 Y104.776 E24.76045
G1 X103.337 Y104.066 E24.85620
G1 X105.196 Y102.713 E24.95191
G1 X106.549 Y100.854 E25.04762
G1 X107.259 Y98.666 E25.14337
G1 X107.259 Y96.368 E25.23905
G1 X106.549 Y94.180 E25.33480
G1 X105.196 Y92.321 E25.43051
G1 X103.454 Y91.054 E25.52018
G1 X108.426 Y80.394 E26.00982
G1 X110.286 Y81.746 E26.10555
G1 X115.283 Y78.011 E26.36524
G1 X119.506 Y82.234 E26.61386
G1 X115.771 Y87.231 E26.87356
G1 X116.965 Y88.873 E26.95808
G1 X118.517 Y93.652 E27.16727
G1 X124.600 Y94.530 E27.42309
G1 X124.600 Y100.504 E27.67174
G1 X118.517 Y101.382 E27.92757
G1 X116.965 Y106.161 E28.13675
G1 X115.771 Y107.803 E28.22127
G1 X119.506 Y112.800 E28.48097
G1 X115.283 Y117.023 E28.72959
G1 X110.286 Y113.288 E28.98929
G1 X108.644 Y114.482 E29.07381
G1 X103.865 Y116.034 E29.28299
G1 X102.987 Y122.117 E29.53882
G1 X97.124 Y122.117 E29.78288
G1 X97.013 Y122.117 E29.78747
G1 X96.367 Y121.744 F7800.000
G1 F1800.000 E28.78747
G92 E0
G1 X98.293 Y116.922 F7800.000
G1 F1800.000 E1.00000
G1 X101.336 Y119.965 F1080.000 E1.18176
G1 X100.459 Y120.144 E1.21954
G1 X98.471 Y118.156 E1.33833
G1 X98.649 Y119.389 E1.39098
G1 X99.404 Y120.144 E1.43607
G1 F1800.000 E0.43607
G92 E0
G1 X80.320 Y95.782 F7800.000
G1 F1800.000 E1.00000
G1 X101.735 Y117.197 F1080.000 E2.27926
G1 X101.868 Y116.275 E2.31863
G1 X81.242 Y95.649 E3.55074
G1 X82.164 Y95.516 E3.59010
G1 X102.001 Y115.353 E4.77507
G1 F1800.000 E3.77507
G92 E0
G1 X83.062 Y99.580 F7800.000
G1 F1800.000 E1.00000
G1 X79.397 Y95.915 F1080.000 E1.21895
G1 X78.475 Y96.048 E1.25831
G1 X81.829 Y99.402 E1.45866
G1 X80.595 Y99.224 E1.51131
G1 X77.552 Y96.181 E1.69307
G1 X77.373 Y97.058 E1.73085
G1 X79.361 Y99.046 E1.84964
G1 X78.128 Y98.868 E1.90229
G1 X77.373 Y98.113 E1.94738
G1 F1800.000 E0.94738
G92 E0
G1 X90.334 Y111.075 F7800.000
G1 F1800.000 E1.00000
G1 X86.442 Y107.183 F1080.000 E1.23248
G1 X84.582 Y104.267 E1.37861
G1 X93.250 Y112.935 E1.89644
G1 X94.814 Y113.443 E1.96587
G1 X84.074 Y102.703 E2.60743
G1 X83.566 Y101.140 E2.67686
G1 X96.377 Y113.951 E3.44213
G1 X97.937 Y114.455 E3.51135
G1 X101.602 Y118.120 E3.73030
G1 X101.469 Y119.042 E3.76966
G1 X98.115 Y115.688 E3.97001
G1 X97.941 Y114.459 E4.02247
G1 X83.058 Y99.576 E4.91147
G1 F1800.000 E3.91147
G92 E0
G1 X85.160 Y114.346 F7800.000
G1 F1800.000 E1.00000
G1 X83.171 Y112.357 F1080.000 E1.11882
G1 X83.623 Y111.753 E1.15067
G1 X85.764 Y113.894 E1.27860
G1 X86.368 Y113.443 E1.31045
G1 X84.074 Y111.149 E1.44749
G1 X84.526 Y110.544 E1.47935
G1 X86.973 Y112.991 E1.62550
G1 X87.577 Y112.539 E1.65735
G1 X84.978 Y109.940 E1.81260
G1 X85.429 Y109.336 E1.84446
G1 X88.181 Y112.088 E2.00883
G1 X88.785 Y111.636 E2.04069
G1 X85.881 Y108.732 E2.21416
G1 X86.332 Y108.128 E2.24602
G1 X89.389 Y111.185 E2.42861
G1 F1800.000 E1.42861
G92 E0
G1 X93.924 Y90.385 F7800.000
G1 F1800.000 E1.00000
G1 X84.460 Y80.921 F1080.000 E1.56535
G1 X83.932 Y81.449 E1.59687
G1 X93.458 Y90.975 E2.16593
G1 X93.014 Y91.586 E2.19785
G1 X83.404 Y81.976 E2.77189
G1 X84.919 Y84.547 E2.89794
G1 X92.569 Y92.197 E3.35490
G1 X92.125 Y92.808 E3.38682
G1 X86.550 Y87.234 E3.71979
G1 X86.106 Y87.845 E3.75171
G1 X91.686 Y93.425 E4.08503
G1 X91.427 Y94.222 E4.12042
G1 X85.662 Y88.457 E4.46484
G1 X85.217 Y89.068 E4.49676
G1 X91.169 Y95.019 E4.85227
G1 X90.910 Y95.816 E4.88766
G1 X84.781 Y89.687 E5.25380
G1 X84.522 Y90.484 E5.28919
G1 X90.768 Y96.730 E5.66233
G1 X90.768 Y97.786 E5.70691
G1 X84.263 Y91.281 E6.09551
G1 X84.004 Y92.077 E6.13090
G1 X90.768 Y98.841 E6.53496
G1 X91.080 Y100.208 E6.59417
G1 X83.745 Y92.874 E7.03227
G1 X83.487 Y93.671 E7.06766
G1 X91.587 Y101.771 E7.55153
G1 F1800.000 E6.55153
G92 E0
G1 X93.001 Y88.407 F7800.000
G1 F1800.000 E1.00000
G1 X87.030 Y82.436 F1080.000 E1.35665
G1 X89.717 Y84.067 E1.48942
G1 X92.078 Y86.428 E1.63045
G1 X91.155 Y84.450 E1.72266
G1 X90.328 Y83.623 E1.77205
G1 F1800.000 E0.77205
G92 E0
G1 X106.091 Y89.885 F7800.000
G1 F1800.000 E1.00000
G1 X116.772 Y100.566 F1080.000 E1.63804
G1 X117.031 Y99.769 E1.67343
G1 X106.427 Y89.165 E2.30687
G1 X106.763 Y88.445 E2.34042
G1 X117.836 Y99.518 E3.00187
G1 X118.758 Y99.385 E3.04123
G1 X107.098 Y87.726 E3.73773
G1 X107.434 Y87.006 E3.77128
G1 X119.680 Y99.252 E4.50282
G1 X120.603 Y99.119 E4.54218
G1 X116.938 Y95.454 E4.76113
G1 X116.942 Y95.458 F7800.000
G1 X107.770 Y86.286 F1080.000 E5.30901
G1 X108.106 Y85.566 E5.34256
G1 X116.434 Y93.894 E5.84005
G1 X115.926 Y92.331 E5.90948
G1 X108.441 Y84.846 E6.35658
G1 X108.777 Y84.126 E6.39013
G1 X115.418 Y90.767 E6.78684
G1 X113.558 Y87.851 E6.93296
G1 X109.666 Y83.960 E7.16542
G1 X110.611 Y83.849 F7800.000
G1 X113.668 Y86.906 F1080.000 E7.34801
G1 X114.119 Y86.302 E7.37987
G1 X111.215 Y83.398 E7.55334
G1 X111.819 Y82.946 E7.58520
G1 X114.571 Y85.698 E7.74957
G1 X115.022 Y85.094 E7.78142
G1 X112.423 Y82.495 E7.93668
G1 X113.027 Y82.043 E7.96853
G1 X115.474 Y84.490 E8.11468
G1 X115.926 Y83.885 E8.14654
G1 X113.632 Y81.591 E8.28357
G1 X114.236 Y81.140 E8.31543
G1 X116.377 Y83.281 E8.44335
G1 X116.829 Y82.677 E8.47521
G1 X114.840 Y80.688 E8.59402
G1 F1800.000 E7.59402
G92 E0
G1 X102.252 Y114.548 F7800.000
G1 F1800.000 E1.00000
G1 X82.969 Y95.265 F1080.000 E2.15190
G1 X83.228 Y94.468 E2.18729
G1 X103.049 Y114.289 E3.37133
G1 X103.846 Y114.030 E3.40672
G1 X95.746 Y105.930 E3.89059
G1 X97.309 Y106.437 E3.96000
G1 X104.643 Y113.772 E4.39811
G1 X105.440 Y113.513 E4.43350
G1 X98.676 Y106.749 E4.83755
G1 X99.731 Y106.749 E4.88214
G1 X106.236 Y113.254 E5.27074
G1 X107.033 Y112.995 E5.30612
G1 X100.787 Y106.749 E5.67927
G1 X101.701 Y106.607 E5.71833
G1 X107.830 Y112.736 E6.08448
G1 X108.449 Y112.300 E6.11647
G1 X102.498 Y106.348 E6.47198
G1 X103.295 Y106.090 E6.50737
G1 X109.060 Y111.855 E6.85178
G1 X109.672 Y111.411 E6.88371
G1 X104.092 Y105.831 E7.21703
G1 X104.709 Y105.392 E7.24900
G1 X110.283 Y110.966 E7.58197
G1 X112.970 Y112.598 E7.71475
G1 X105.320 Y104.948 E8.17171
G1 X105.931 Y104.503 E8.20364
G1 X115.541 Y114.113 E8.77767
G1 X116.068 Y113.585 E8.80919
G1 X106.542 Y104.059 E9.37825
G1 X106.986 Y103.448 E9.41017
G1 X116.596 Y113.057 E9.98420
G1 X115.081 Y110.487 E10.11026
G1 X107.431 Y102.837 E10.56722
G1 X107.875 Y102.226 E10.59914
G1 X113.450 Y107.800 E10.93211
G1 X113.894 Y107.188 E10.96402
G1 X108.314 Y101.608 E11.29735
G1 X108.573 Y100.812 E11.33274
G1 X114.338 Y106.577 E11.67716
G1 X114.783 Y105.966 E11.70908
G1 X108.831 Y100.015 E12.06459
G1 X109.090 Y99.218 E12.09998
G1 X115.219 Y105.347 E12.46612
G1 X115.478 Y104.550 E12.50151
G1 X109.232 Y98.304 E12.87465
G1 X109.232 Y97.248 E12.91924
G1 X115.737 Y103.753 E13.30783
G1 X115.996 Y102.957 E13.34322
G1 X109.232 Y96.193 E13.74728
G1 X108.920 Y94.826 E13.80649
G1 X116.255 Y102.160 E14.24459
G1 X116.513 Y101.363 E14.27998
G1 X108.413 Y93.263 E14.76386
G1 F1800.000 E13.76386
G92 E0
G1 X118.171 Y95.632 F7800.000
G1 F1800.000 E1.00000
G1 X121.525 Y98.986 F1080.000 E1.20035
G1 X122.448 Y98.853 E1.23972
G1 X119.405 Y95.810 E1.42148
G1 X120.639 Y95.988 E1.47413
G1 X122.627 Y97.976 E1.59291
G1 X122.627 Y96.921 E1.63750
G1 X121.873 Y96.166 E1.68259
G1 F1800.000 E0.68259
G92 E0
G1 Z0.800 F7800.000
G1 X84.802 Y79.201
G1 F1800.000 E1.00000
G1 X89.706 Y82.866 F1800.000 E1.18004
G1 X91.219 Y81.766 E1.23503
G1 X95.414 Y90.761 E1.52688
G1 X94.158 Y91.675 E1.57256
G1 X92.638 Y93.765 E1.64857
G1 X91.839 Y96.225 E1.72461
G1 X91.839 Y98.809 E1.80059
G1 X92.638 Y101.269 E1.87663
G1 X94.158 Y103.359 E1.95264
G1 X96.248 Y104.879 E2.02864
G1 X98.708 Y105.678 E2.10468
G1 X101.292 Y105.678 E2.18067
G1 X103.752 Y104.879 E2.25671
G1 X105.842 Y103.359 E2.33271
G1 X107.362 Y101.269 E2.40872
G1 X108.161 Y98.809 E2.48476
G1 X108.161 Y96.225 E2.56074
G1 X107.362 Y93.765 E2.63678
G1 X105.842 Y91.675 E2.71279
G1 X104.586 Y90.761 E2.75847
G1 X108.781 Y81.766 E3.05032
G1 X110.294 Y82.866 E3.10531
G1 X115.198 Y79.201 E3.28535
G1 X118.316 Y82.319 E3.41505
G1 X114.651 Y87.223 E3.59508
G1 X116.152 Y89.288 E3.67013
G1 X117.833 Y94.465 E3.83020
G1 X123.698 Y95.311 E4.00445
G1 X123.698 Y99.723 E4.13417
G1 X117.833 Y100.569 E4.30842
G1 X116.152 Y105.746 E4.46848
G1 X114.651 Y107.811 E4.54353
G1 X118.316 Y112.715 E4.72357
G1 X115.198 Y115.833 E4.85327
G1 X110.294 Y112.168 E5.03330
G1 X108.229 Y113.669 E5.10835
G1 X103.052 Y115.350 E5.26842
G1 X102.206 Y121.215 E5.44267
G1 X97.794 Y121.215 E5.57238
G1 X96.948 Y115.350 E5.74664
G1 X91.771 Y113.669 E5.90670
G1 X89.706 Y112.168 E5.98175
G1 X84.802 Y115.833 E6.16179
G1 X81.684 Y112.715 E6.29149
G1 X85.349 Y107.811 E6.47152
G1 X83.848 Y105.746 E6.54657
G1 X82.167 Y100.569 E6.70663
G1 X76.302 Y99.723 E6.88089
G1 X76.302 Y95.311 E7.01060
G1 X82.167 Y94.465 E7.18486
G1 X83.848 Y89.288 E7.34492
G1 X85.349 Y87.223 E7.41997
G1 X81.684 Y82.319 E7.60000
G1 X84.747 Y79.256 E7.72741
